public/payments/crypto/metamask.svg

<svg width="19" height="19" viewBox="0 0 19 19" fill="none" xmlns="http://www.w3.org/2000/svg">
<path d="M16.3462 2.11707L10.4125 6.52417L11.5098 3.92404L16.3462 2.11707Z" fill="#E2761B" stroke="#E2761B" stroke-linecap="round" stroke-linejoin="round"/>
<path d="M2.64778 2.11707L8.53385 6.56591L7.49022 3.92404L2.64778 2.11707ZM14.2112 12.3327L12.6308 14.7539L16.0122 15.6842L16.9843 12.3864L14.2112 12.3327ZM2.02161 12.3864L2.98771 15.6842L6.36906 14.7539L4.78871 12.3327L2.02161 12.3864Z" fill="#E4761B" stroke="#E4761B" stroke-linecap="round" stroke-linejoin="round"/>
<path d="M6.17833 8.24168L5.23608 9.66698L8.59359 9.81607L8.47431 6.2081L6.17833 8.24168ZM12.8158 8.24168L10.49 6.16635L10.4125 9.81607L13.764 9.66698L12.8158 8.24168ZM6.36917 14.7539L8.38486 13.7699L6.64349 12.4102L6.36917 14.7539ZM10.6093 13.7699L12.6309 14.7539L12.3506 12.4102L10.6093 13.7699Z" fill="#E4761B" stroke="#E4761B" stroke-linecap="round" stroke-linejoin="round"/>
<path d="M12.6309 14.7539L10.6093 13.7699L10.7703 15.0879L10.7524 15.6425L12.6309 14.7539ZM6.36914 14.7539L8.24767 15.6425L8.23574 15.0879L8.38483 13.7699L6.36914 14.7539Z" fill="#D7C1B3" stroke="#D7C1B3" stroke-linecap="round" stroke-linejoin="round"/>
<path d="M8.27744 11.5395L6.5957 11.0446L7.78246 10.5019L8.27744 11.5395ZM10.7165 11.5395L11.2115 10.5019L12.4042 11.0446L10.7165 11.5395Z" fill="#233447" stroke="#233447" stroke-linecap="round" stroke-linejoin="round"/>
<path d="M6.36917 14.7539L6.65542 12.3327L4.78882 12.3864L6.36917 14.7539ZM12.3447 12.3327L12.6309 14.7539L14.2113 12.3864L12.3447 12.3327ZM13.764 9.66698L10.4125 9.81607L10.7226 11.5395L11.2176 10.5019L12.4103 11.0446L13.764 9.66698ZM6.59579 11.0446L7.7885 10.5019L8.27752 11.5395L8.59359 9.81607L5.23609 9.66698L6.59579 11.0446Z" fill="#CD6116" stroke="#CD6116" stroke-linecap="round" stroke-linejoin="round"/>
<path d="M5.23608 9.66698L6.64349 12.4102L6.59578 11.0446L5.23608 9.66698ZM12.4103 11.0446L12.3506 12.4102L13.764 9.66698L12.4103 11.0446ZM8.59359 9.81607L8.27752 11.5395L8.67111 13.5731L8.76057 10.8955L8.59359 9.81607ZM10.4125 9.81607L10.2515 10.8895L10.323 13.5731L10.7226 11.5395L10.4125 9.81607Z" fill="#E4751F" stroke="#E4751F" stroke-linecap="round" stroke-linejoin="round"/>
<path d="M10.7225 11.5395L10.3229 13.5731L10.6092 13.7699L12.3506 12.4102L12.4102 11.0446L10.7225 11.5395ZM6.5957 11.0446L6.64341 12.4102L8.38478 13.7699L8.67103 13.5731L8.27744 11.5395L6.5957 11.0446Z" fill="#F6851B" stroke="#F6851B" stroke-linecap="round" stroke-linejoin="round"/>
<path d="M10.7524 15.6425L10.7703 15.0879L10.6212 14.9567H8.37291L8.23574 15.0879L8.24767 15.6425L6.36914 14.7539L7.02514 15.2906L8.35502 16.215H10.6391L11.9749 15.2906L12.6309 14.7539L10.7524 15.6425Z" fill="#C0AD9E" stroke="#C0AD9E" stroke-linecap="round" stroke-linejoin="round"/>
<path d="M10.6092 13.7699L10.323 13.5731H8.67106L8.38481 13.7699L8.23572 15.0879L8.37288 14.9567H10.6212L10.7702 15.0879L10.6092 13.7699Z" fill="#161616" stroke="#161616" stroke-linecap="round" stroke-linejoin="round"/>
<path d="M16.5966 6.81042L17.1035 4.37727L16.3461 2.11707L10.6092 6.37508L12.8157 8.24168L15.9347 9.15411L16.6264 8.34903L16.3283 8.13434L16.8053 7.69899L16.4356 7.41274L16.9127 7.04896L16.5966 6.81042ZM1.89636 4.37727L2.40327 6.81042L2.08123 7.04896L2.55832 7.41274L2.19454 7.69899L2.67163 8.13434L2.37345 8.34903L3.05926 9.15411L6.17822 8.24168L8.38475 6.37508L2.64777 2.11707L1.89636 4.37727Z" fill="#763D16" stroke="#763D16" stroke-linecap="round" stroke-linejoin="round"/>
<path d="M15.9347 9.15411L12.8157 8.24168L13.7639 9.66698L12.3505 12.4102L14.2112 12.3864H16.9843L15.9347 9.15411ZM6.17823 8.24168L3.05927 9.15411L2.02161 12.3864H4.78871L6.64339 12.4102L5.23598 9.66698L6.17823 8.24168ZM10.4124 9.81607L10.6092 6.37508L11.5156 3.92404H7.49022L8.38476 6.37508L8.59348 9.81607L8.66505 10.9014L8.67101 13.5731H10.3229L10.3349 10.9014L10.4124 9.81607Z" fill="#F6851B" stroke="#F6851B" stroke-linecap="round" stroke-linejoin="round"/>
</svg>

<svg xmlns="http://www.w3.org/2000/svg" width="19" height="19" fill="none"><path fill="#E2761B" stroke="#E2761B" stroke-linecap="round" stroke-linejoin="round" d="m16.35 2.12-5.94 4.4 1.1-2.6 4.84-1.8Z"/><path fill="#E4761B" stroke="#E4761B" stroke-linecap="round" stroke-linejoin="round" d="m2.65 2.12 5.88 4.45L7.5 3.92l-4.84-1.8ZM14.2 12.33l-1.58 2.42 3.38.93.97-3.3-2.77-.05Zm-12.19.06.97 3.3 3.38-.94-1.58-2.42-2.77.06Z"/><path fill="#E4761B" stroke="#E4761B" stroke-linecap="round" stroke-linejoin="round" d="m6.18 8.24-.94 1.43 3.35.15-.12-3.61-2.3 2.03Zm6.64 0-2.33-2.07-.08 3.65 3.35-.15-.94-1.43Zm-6.45 6.51 2.01-.98-1.74-1.36-.27 2.34Zm4.24-.98 2.02.98-.28-2.34-1.74 1.36Z"/><path fill="#D7C1B3" stroke="#D7C1B3" stroke-linecap="round" stroke-linejoin="round" d="m12.63 14.75-2.02-.98.16 1.32-.02.55 1.88-.89Zm-6.26 0 1.88.9-.01-.56.14-1.32-2.01.98Z"/><path fill="#233447" stroke="#233447" stroke-linecap="round" stroke-linejoin="round" d="m8.28 11.54-1.68-.5 1.18-.54.5 1.04Zm2.44 0 .5-1.04 1.18.54-1.68.5Z"/><path fill="#CD6116" stroke="#CD6116" stroke-linecap="round" stroke-linejoin="round" d="m6.37 14.75.29-2.42-1.87.06 1.58 2.36Zm5.97-2.42.3 2.42 1.57-2.36-1.87-.06Zm1.42-2.66-3.35.15.31 1.72.5-1.04 1.19.54 1.35-1.37ZM6.6 11.04l1.19-.54.49 1.04.31-1.72-3.35-.15 1.36 1.37Z"/><path fill="#E4751F" stroke="#E4751F" stroke-linecap="round" stroke-linejoin="round" d="m5.24 9.67 1.4 2.74-.04-1.37-1.36-1.37Zm7.17 1.37-.06 1.37 1.41-2.74-1.35 1.37ZM8.59 9.82l-.31 1.72.4 2.03.08-2.67-.17-1.08Zm1.82 0-.16 1.07.07 2.68.4-2.03-.3-1.72Z"/><path fill="#F6851B" stroke="#F6851B" stroke-linecap="round" stroke-linejoin="round" d="m10.72 11.54-.4 2.03.29.2 1.74-1.36.06-1.37-1.69.5Zm-4.12-.5.04 1.37 1.74 1.36.3-.2-.4-2.03-1.68-.5Z"/><path fill="#C0AD9E" stroke="#C0AD9E" stroke-linecap="round" stroke-linejoin="round" d="m10.75 15.64.02-.55-.15-.13H8.37l-.13.13v.55l-1.87-.89.66.54 1.33.93h2.28l1.33-.93.66-.54-1.88.9Z"/><path fill="#161616" stroke="#161616" stroke-linecap="round" stroke-linejoin="round" d="m10.6 13.77-.28-.2H8.67l-.29.2-.14 1.32.13-.13h2.25l.15.13-.16-1.32Z"/><path fill="#763D16" stroke="#763D16" stroke-linecap="round" stroke-linejoin="round" d="m16.6 6.81.5-2.43-.75-2.26-5.74 4.26 2.2 1.86 3.12.91.7-.8-.3-.22.48-.43-.37-.29.47-.36-.31-.24ZM1.9 4.38l.5 2.43-.32.24.48.36-.37.29.48.43-.3.22.69.8 3.12-.9 2.2-1.87-5.73-4.26-.75 2.26Z"/><path fill="#F6851B" stroke="#F6851B" stroke-linecap="round" stroke-linejoin="round" d="m15.93 9.15-3.11-.9.94 1.42-1.4 2.74 1.85-.02h2.77l-1.05-3.24Zm-9.75-.9-3.12.9-1.04 3.24H4.8l1.85.02-1.4-2.74.94-1.43Zm4.23 1.57.2-3.44.9-2.46H7.5l.9 2.46.2 3.44.08 1.08v2.67h1.65l.01-2.67.08-1.08Z"/></svg>
